packages/foundations/assets/icons/functional/images/date & time/alarm_clock_24.svg

<svg width="24" height="24" viewBox="0 0 24 24" fill="none" xmlns="http://www.w3.org/2000/svg">
<g clip-path="url(#clip0_185_633)">
<path fill-rule="evenodd" clip-rule="evenodd" d="M17.25 3C19.3125 3 21 4.6562 21 6.75C21 7.875 20.5 8.9062 19.6562 9.625C19.875 10.375 20 11.1562 20 11.9688C20 13.875 19.3438 15.625 18.2188 17.0312L19.8438 19.4375C19.9375 19.5938 20 19.8125 20 20C20 20.5312 19.5311 21 19 21C18.6875 21 18.375 20.8438 18.1875 20.5625L16.75 18.4062C15.4062 19.4062 13.7812 20 12 20C10.1875 20 8.5625 19.4062 7.2188 18.4062L5.7812 20.5625C5.5938 20.8438 5.2812 21 4.9375 21C4.4062 21 3.9375 20.5625 3.9375 20C3.9375 19.8125 4 19.625 4.125 19.4375L5.75 17C4.625 15.625 3.9688 13.875 3.9688 11.9688C3.9688 11.1562 4.0938 10.3438 4.3125 9.5938C3.5 8.9062 3 7.8438 3 6.75C3 4.6875 4.6875 3 6.75 3C7.875 3 8.9062 3.5 9.5938 4.3125C10.3438 4.0938 11.1562 3.9375 12 3.9375C12.8125 3.9375 13.625 4.0938 14.4062 4.3125C15.0938 3.5 16.125 3 17.25 3ZM12 5.9375C8.6562 5.9375 5.9688 8.6562 5.9688 11.9688C5.9688 15.2812 8.6562 18 12 18C15.3125 18 18 15.2812 18 11.9688C18 8.6562 15.3125 5.9375 12 5.9375ZM6.75 5C5.7812 5 5 5.7812 5 6.75C5 7.0625 5.0938 7.375 5.25 7.6562C5.875 6.6875 6.6875 5.8438 7.6562 5.25C7.375 5.0625 7.0625 5 6.75 5ZM17.25 5C16.9062 5 16.5938 5.0938 16.3438 5.25C17.3125 5.875 18.125 6.6875 18.75 7.6562C18.9062 7.375 19 7.0625 19 6.75C19 5.7812 18.2188 5 17.25 5ZM11 12.0312C11 12.2812 11.125 12.5625 11.3125 12.75L12.9375 14.3125C13.125 14.5 13.375 14.5938 13.625 14.5938C14.1875 14.5938 14.625 14.125 14.625 13.5938C14.625 13.3438 14.5312 13.0625 14.3125 12.875L13 11.5938V8.4375C13 7.875 12.5625 7.4375 12 7.4375C11.4688 7.4375 11 7.875 11 8.4375V12.0312Z" fill="#1A1C1F"/>
</g>
<defs>
<clipPath id="clip0_185_633">
<rect width="24" height="24" fill="white"/>
</clipPath>
</defs>
</svg>

<svg xmlns="http://www.w3.org/2000/svg" width="24" height="24" fill="none"><g clip-path="url(#a)"><path fill="#1A1C1F" fill-rule="evenodd" d="M17.25 3A3.74 3.74 0 0 1 21 6.75a3.76 3.76 0 0 1-1.344 2.875c.219.75.344 1.531.344 2.344a8.05 8.05 0 0 1-1.781 5.062l1.625 2.407c.093.156.156.375.156.562 0 .531-.469 1-1 1a.98.98 0 0 1-.812-.437l-1.438-2.157a7.922 7.922 0 0 1-9.531 0L5.78 20.563a1 1 0 0 1-.843.437c-.532 0-1-.437-1-1q0-.281.187-.562L5.75 17a7.9 7.9 0 0 1-1.781-5.031c0-.813.125-1.625.344-2.375A3.77 3.77 0 0 1 3 6.75 3.76 3.76 0 0 1 6.75 3c1.125 0 2.156.5 2.844 1.313.75-.22 1.562-.375 2.406-.375.813 0 1.625.156 2.406.374A3.72 3.72 0 0 1 17.25 3M12 5.938a6.035 6.035 0 0 0-6.031 6.03A6.035 6.035 0 0 0 12 18c3.313 0 6-2.719 6-6.031 0-3.313-2.687-6.031-6-6.031M6.75 5C5.781 5 5 5.781 5 6.75c0 .313.094.625.25.906.625-.968 1.438-1.812 2.406-2.406C7.375 5.063 7.063 5 6.75 5m10.5 0c-.344 0-.656.094-.906.25a8 8 0 0 1 2.406 2.406c.156-.281.25-.593.25-.906C19 5.781 18.219 5 17.25 5M11 12.031c0 .25.125.531.313.719l1.624 1.563a.97.97 0 0 0 .688.28c.563 0 1-.468 1-1a.95.95 0 0 0-.312-.718L13 11.594V8.438c0-.563-.437-1-1-1-.531 0-1 .437-1 1z" clip-rule="evenodd"/></g><defs><clipPath id="a"><path fill="#fff" d="M0 0h24v24H0z"/></clipPath></defs></svg>
